client/public/img/game/shared/loot/gauze.svg

<?xml version="1.0" encoding="UTF-8" standalone="no"?>
<!-- Created with Inkscape (http://www.inkscape.org/) -->

<svg
   width="57.99926"
   height="48.610916"
   viewBox="0 0 15.345635 12.861641"
   version="1.1"
   id="svg1104"
   xml:space="preserve"
   xmlns="http://www.w3.org/2000/svg"
   xmlns:svg="http://www.w3.org/2000/svg"
   xmlns:rdf="http://www.w3.org/1999/02/22-rdf-syntax-ns#"
   xmlns:cc="http://creativecommons.org/ns#"
   xmlns:dc="http://purl.org/dc/elements/1.1/"><defs
     id="defs1101" /><g
     id="layer1"
     transform="translate(-111.84543,27.59904)"><g
       id="g830"
       transform="matrix(2.5509972,0,0,2.5509972,-169.075,42.671521)"><g
         id="g1"
         transform="matrix(0.98643942,0,0,0.98061856,1.5065034,-0.51552561)"
         style="stroke-width:1.00517"><g
           id="g2"
           transform="matrix(1.1034429,0,0,1.1034429,-11.335213,2.8489903)"><path
             id="rect10787"
             style="fill:#d0dee5;fill-opacity:1;stroke:#232323;stroke-width:0.382261;stroke-linecap:square;stroke-linejoin:miter;stroke-dasharray:none;stroke-opacity:1"
             d="m 111.4409,-24.554559 -1.10526,0.861284 0.404,0.463327 0.37968,-0.28595 0.20464,0.353877 0.62791,-0.350496 0.13082,0.319887 0.58397,-0.320329 0.27744,0.320329 1.72936,-1.367434 z" /><g
             id="g3"
             transform="matrix(0.89054652,0,0,0.79768345,12.076621,-5.5397755)"
             style="stroke-width:1.1926"><path
               id="path850"
               style="fill:#edf5f9;fill-opacity:1;stroke:#232323;stroke-width:0.45354;stroke-linejoin:round;stroke-dasharray:none;stroke-opacity:1"
               d="m 111.57674,-27.381936 a 0.86882336,1.7722158 0 0 0 -0.86887,1.772215 0.86882336,1.7722158 0 0 0 0.86887,1.772215 h 3.55827 0.0716 v -0.0069 a 0.86882336,1.7722158 0 0 0 0.79725,-1.765354 0.86882336,1.7722158 0 0 0 -0.79725,-1.765353 v -0.0069 h -0.0716 z" /><ellipse
               style="fill:#94a2aa;fill-opacity:1;stroke:#232323;stroke-width:0.45354;stroke-dasharray:none;stroke-opacity:1"
               id="path850-9-9"
               cx="115.13493"
               cy="-25.609644"
               rx="0.86882341"
               ry="1.7722162" /><path
               style="fill:none;fill-rule:evenodd;stroke:#464b50;stroke-width:0.865938;stroke-linecap:round;stroke-linejoin:round;stroke-miterlimit:4;stroke-dasharray:none;stroke-opacity:1"
               id="path11569"
               d="M 0.55393777,8.9498347 C 0.85734868,8.4015654 1.631545,8.4854008 2.0416379,8.8470273 2.7444436,9.4667727 2.5863305,10.574089 1.9517659,11.176955 1.0377225,12.045339 -0.43277976,11.805856 -1.2203899,10.894404 -2.2591552,9.6923056 -1.9353637,7.8492819 -0.74515892,6.8800202 0.74247566,5.668542 2.962081,6.0779678 4.1114524,7.5479306 5.4969277,9.3198534 5.0011776,11.918177 3.2508625,13.24677 1.1953572,14.80702 -1.7829519,14.224545 -3.2902044,12.1935 -5.0257339,9.8548491 -4.3562835,6.4957402 -2.0442556,4.8102057 0.57725315,2.8990509 4.3177172,3.6556444 6.1812669,6.2488339 8.2682941,9.1529996 7.4244403,13.275215 4.5499592,15.316584 3.4574586,16.092445 2.1427329,16.532376 0.80450676,16.58278"
               transform="matrix(0.09035512,0,0,0.18976705,115.00004,-27.490124)" /></g></g></g></g></g><metadata
     id="metadata13272"><rdf:RDF><cc:Work
         rdf:about=""><dc:creator><cc:Agent><dc:title>Radians</dc:title></cc:Agent></dc:creator></cc:Work></rdf:RDF></metadata></svg>

<svg xmlns="http://www.w3.org/2000/svg" xml:space="preserve" width="57.999" height="48.611" viewBox="0 0 15.346 12.862"><g style="stroke-width:1.00517"><path d="m111.44-24.555-1.104.862.404.463.38-.286.204.354.628-.35.13.32.585-.321.277.32 1.73-1.367z" style="fill:#d0dee5;fill-opacity:1;stroke:#232323;stroke-width:.382261;stroke-linecap:square;stroke-linejoin:miter;stroke-dasharray:none;stroke-opacity:1" transform="matrix(2.7767 0 0 2.76032 -305.601 76.082)"/><g style="stroke-width:1.1926" transform="matrix(2.47279 0 0 2.20186 -272.068 60.79)"><path d="M111.577-27.382a.869 1.772 0 0 0-.87 1.772.869 1.772 0 0 0 .87 1.772h3.63v-.006a.869 1.772 0 0 0 .797-1.766.869 1.772 0 0 0-.797-1.765v-.007h-.072z" style="fill:#edf5f9;fill-opacity:1;stroke:#232323;stroke-width:.45354;stroke-linejoin:round;stroke-dasharray:none;stroke-opacity:1"/><ellipse cx="115.135" cy="-25.61" rx=".869" ry="1.772" style="fill:#94a2aa;fill-opacity:1;stroke:#232323;stroke-width:.45354;stroke-dasharray:none;stroke-opacity:1"/><path d="M.554 8.95c.303-.548 1.078-.465 1.488-.103.702.62.544 1.727-.09 2.33-.914.868-2.385.629-3.172-.283-1.04-1.202-.715-3.045.475-4.014 1.487-1.211 3.707-.802 4.856.668 1.386 1.772.89 4.37-.86 5.699-2.056 1.56-5.034.978-6.541-1.053-1.736-2.34-1.066-5.698 1.246-7.384C.577 2.9 4.318 3.656 6.18 6.25c2.087 2.904 1.243 7.026-1.631 9.068a6.95 6.95 0 0 1-3.745 1.266" style="fill:none;fill-rule:evenodd;stroke:#464b50;stroke-width:.865938;stroke-linecap:round;stroke-linejoin:round;stroke-miterlimit:4;stroke-dasharray:none;stroke-opacity:1" transform="matrix(.09036 0 0 .18977 115 -27.49)"/></g></g></svg>
